X: 261
T: the Boy of My Heart
B: O'Neill's 261
N: "Gaily"
N: "Collected by J.O'Neill"
Z: 1997 by John Chambers <jc@trillian.mit.edu>
M: 6/8
L: 1/8
K:G
D2 \
| (DEG) A2A | (ABG) A2E | (GAB) (cBA) | (BGE) E2c |
| (c>dc) B2G | (A2E) (G2E) | .D(cB) (cBA) | GED D2 ||
|| (G/E/) \
| (DG).G (DA).A | (DB).B A2(E/F/) | (GAB) (c>BA) | (B2G) (E2B) |
| (c>dc) B2B | A2E G2E/E/ | .D(cB) (cBA) | GED D2 ||


